X:220
T: Untreue (3-23), S. 78
N: P0995
O: Lothringen
S: PINCK, Louis: Verklingende Weisen, Bd3, Metz 1933]
R: Untreue, Mord, Standesunterschied]
M: 3/4
L: 1/8
K: F
FFF | c4d2 | c3Bc2 | A2F2
F2 | F2F2c2 | B3AG2 |
F2G2A2 | G2C2z2 |
C2D2E2 | G4c2 | B2G2A2 | F2z

@@@ Tune index: 7770
